icons-common/bastID-cleared.svg

<svg height="1em" width="auto" viewBox="0 0 105 105" fill="currentColor" xmlns="http://www.w3.org/2000/svg">
    <mask id="path-1-outside-1_2188_7971" maskUnits="userSpaceOnUse" x="3" y="30" width="100" height="46" fill="black">
        <rect fill="white" x="3" y="30" width="100" height="46"/>
        <path d="M8 42.8348C8 38.5078 11.5258 35 15.875 35H90.125C94.4742 35 98 38.5078 98 42.8348V62.9815C98 67.3086 94.4742 70.8163 90.125 70.8163H15.875C11.5258 70.8163 8 67.3086 8 62.9815V42.8348Z"/>
        <path d="M52.4425 62.9815V43.3945H56.9987V62.9815H52.4425Z"/>
        <path d="M61.7553 62.9815V43.3945H70.6991C72.8366 43.3945 74.721 43.8048 76.3522 44.6256C77.9835 45.4278 79.2585 46.5564 80.1772 48.0114C81.096 49.4664 81.5553 51.192 81.5553 53.188C81.5553 55.1653 81.096 56.8909 80.1772 58.3646C79.2585 59.8196 77.9835 60.9575 76.3522 61.7783C74.721 62.5804 72.8366 62.9815 70.6991 62.9815H61.7553ZM66.3116 59.26H70.4741C71.7866 59.26 72.921 59.0175 73.8772 58.5324C74.8522 58.0288 75.6022 57.3199 76.1272 56.4059C76.671 55.4918 76.9428 54.4192 76.9428 53.188C76.9428 51.9381 76.671 50.8655 76.1272 49.9701C75.6022 49.056 74.8522 48.3565 73.8772 47.8715C72.921 47.3678 71.7866 47.116 70.4741 47.116H66.3116V59.26Z"/>
    </mask>
    <path d="M52.4425 62.9815V43.3945H56.9987V62.9815H52.4425Z" />
    <path d="M61.7553 62.9815V43.3945H70.6991C72.8366 43.3945 74.721 43.8048 76.3522 44.6256C77.9835 45.4278 79.2585 46.5564 80.1772 48.0114C81.096 49.4664 81.5553 51.192 81.5553 53.188C81.5553 55.1653 81.096 56.8909 80.1772 58.3646C79.2585 59.8196 77.9835 60.9575 76.3522 61.7783C74.721 62.5804 72.8366 62.9815 70.6991 62.9815H61.7553ZM66.3116 59.26H70.4741C71.7866 59.26 72.921 59.0175 73.8772 58.5324C74.8522 58.0288 75.6022 57.3199 76.1272 56.4059C76.671 55.4918 76.9428 54.4192 76.9428 53.188C76.9428 51.9381 76.671 50.8655 76.1272 49.9701C75.6022 49.056 74.8522 48.3565 73.8772 47.8715C72.921 47.3678 71.7866 47.116 70.4741 47.116H66.3116V59.26Z"
          />
    <path d="M52.4425 62.9815H47.4425V67.9815H52.4425V62.9815ZM52.4425 43.3945V38.3945H47.4425V43.3945H52.4425ZM56.9987 43.3945H61.9987V38.3945H56.9987V43.3945ZM56.9987 62.9815V67.9815H61.9987V62.9815H56.9987ZM61.7553 62.9815H56.7553V67.9815H61.7553V62.9815ZM61.7553 43.3945V38.3945H56.7553V43.3945H61.7553ZM76.3522 44.6256L74.1048 49.0921L74.1253 49.1024L74.1459 49.1125L76.3522 44.6256ZM80.1772 58.3646L84.405 61.0341L84.4126 61.0219L84.4202 61.0098L80.1772 58.3646ZM76.3522 61.7783L78.5586 66.2652L78.5791 66.2551L78.5996 66.2448L76.3522 61.7783ZM66.3116 59.26H61.3116V64.26H66.3116V59.26ZM73.8772 58.5324L76.1389 62.9917L76.1555 62.9833L76.172 62.9747L73.8772 58.5324ZM76.1272 56.4059L71.8301 53.8496L71.8105 53.8824L71.7915 53.9156L76.1272 56.4059ZM76.1272 49.9701L71.7915 52.4604L71.8219 52.5133L71.8535 52.5654L76.1272 49.9701ZM73.8772 47.8715L71.5471 52.2954L71.5984 52.3224L71.6503 52.3482L73.8772 47.8715ZM66.3116 47.116V42.116H61.3116V47.116H66.3116ZM15.875 40H90.125V30H15.875V40ZM93 42.8348V62.9815H103V42.8348H93ZM90.125 65.8163H15.875V75.8163H90.125V65.8163ZM13 62.9815V42.8348H3V62.9815H13ZM15.875 65.8163C14.263 65.8163 13 64.5231 13 62.9815H3C3 70.0941 8.78847 75.8163 15.875 75.8163V65.8163ZM93 62.9815C93 64.5231 91.737 65.8163 90.125 65.8163V75.8163C97.2115 75.8163 103 70.0941 103 62.9815H93ZM90.125 40C91.737 40 93 41.2933 93 42.8348H103C103 35.7223 97.2115 30 90.125 30V40ZM15.875 30C8.78848 30 3 35.7223 3 42.8348H13C13 41.2933 14.263 40 15.875 40V30ZM57.4425 62.9815V43.3945H47.4425V62.9815H57.4425ZM52.4425 48.3945H56.9987V38.3945H52.4425V48.3945ZM51.9987 43.3945V62.9815H61.9987V43.3945H51.9987ZM56.9987 57.9815H52.4425V67.9815H56.9987V57.9815ZM66.7553 62.9815V43.3945H56.7553V62.9815H66.7553ZM61.7553 48.3945H70.6991V38.3945H61.7553V48.3945ZM70.6991 48.3945C72.1889 48.3945 73.2805 48.6773 74.1048 49.0921L78.5996 40.1592C76.1615 38.9324 73.4843 38.3945 70.6991 38.3945V48.3945ZM74.1459 49.1125C74.9972 49.5311 75.552 50.0514 75.9495 50.6809L84.405 45.3419C82.9649 43.0613 80.9697 41.3244 78.5586 40.1388L74.1459 49.1125ZM75.9495 50.6809C76.2873 51.216 76.5553 51.9828 76.5553 53.188H86.5553C86.5553 50.4011 85.9046 47.7169 84.405 45.3419L75.9495 50.6809ZM76.5553 53.188C76.5553 54.3629 76.2924 55.1448 75.9342 55.7193L84.4202 61.0098C85.8995 58.6369 86.5553 55.9677 86.5553 53.188H76.5553ZM75.9495 55.6951C75.5454 56.3349 74.9767 56.8731 74.1048 57.3118L78.5996 66.2448C80.9902 65.0419 82.9715 63.3043 84.405 61.0341L75.9495 55.6951ZM74.1459 57.2914C73.3119 57.7015 72.2054 57.9815 70.6991 57.9815V67.9815C73.4678 67.9815 76.13 67.4594 78.5586 66.2652L74.1459 57.2914ZM70.6991 57.9815H61.7553V67.9815H70.6991V57.9815ZM66.3116 64.26H70.4741V54.26H66.3116V64.26ZM70.4741 64.26C72.3991 64.26 74.3419 63.9031 76.1389 62.9917L71.6155 54.0732C71.5 54.1318 71.1741 54.26 70.4741 54.26V64.26ZM76.172 62.9747C77.9638 62.0491 79.439 60.6788 80.4629 58.8961L71.7915 53.9156C71.7654 53.961 71.7406 54.0084 71.5824 54.0902L76.172 62.9747ZM80.4244 58.9621C81.4965 57.1598 81.9428 55.1751 81.9428 53.188H71.9428C71.9428 53.6632 71.8454 53.8238 71.8301 53.8496L80.4244 58.9621ZM81.9428 53.188C81.9428 51.2009 81.5043 49.1919 80.4009 47.3748L71.8535 52.5654C71.8549 52.5677 71.859 52.5747 71.865 52.5892C71.8711 52.6039 71.8812 52.6312 71.8922 52.6746C71.9142 52.7615 71.9428 52.9248 71.9428 53.188H81.9428ZM80.4629 47.4798C79.4295 45.6805 77.9317 44.3039 76.1041 43.3948L71.6503 52.3482C71.7325 52.3891 71.7596 52.4154 71.7606 52.4163C71.7629 52.4184 71.765 52.4206 71.7682 52.4247C71.7714 52.4288 71.7795 52.4396 71.7915 52.4604L80.4629 47.4798ZM76.2073 43.4476C74.3943 42.4927 72.4263 42.116 70.4741 42.116V52.116C71.1469 52.116 71.4476 52.243 71.5471 52.2954L76.2073 43.4476ZM70.4741 42.116H66.3116V52.116H70.4741V42.116ZM61.3116 47.116V59.26H71.3116V47.116H61.3116Z"
           mask="url(#path-1-outside-1_2188_7971)"/>
    <path d="M37.3003 43.7741C37.4012 44.1341 37.5021 44.5328 37.6031 44.9443C38.852 49.741 40.7949 57.2125 41.4005 59.5401C41.4888 59.8616 41.1986 60.1574 40.8706 60.0802C39.9749 59.8616 38.4736 59.4758 37.6914 59.2829C36.9723 56.5438 36.2658 53.8047 35.5467 51.0398C33.6543 53.1488 31.7745 55.2321 29.8948 57.3283C28.835 57.0582 27.7753 56.801 26.7156 56.531C26.3876 56.4538 26.274 56.0423 26.5011 55.7851C30.0966 51.7728 33.6795 47.7992 37.3003 43.7741ZM37.3003 41.5236C36.6947 41.5236 36.1018 41.7808 35.6728 42.2566L32.5693 45.7159L24.3564 54.8206C23.8265 55.4122 23.6499 56.2352 23.8644 56.9939C24.0915 57.7526 24.697 58.3442 25.454 58.5242L28.7846 59.3601L29.3523 59.5016C29.5289 59.5401 29.7055 59.5659 29.8822 59.5659C30.4877 59.5659 31.0807 59.3087 31.5096 58.8328L34.4365 55.5793V55.6179L35.5467 59.8616C35.7485 60.6589 36.3667 61.2762 37.1489 61.4691L41.0346 62.4464C41.2112 62.4979 41.3878 62.5107 41.5771 62.5107C42.1574 62.5107 42.7251 62.2793 43.1414 61.842C44.0372 60.929 43.8858 60.3246 43.2928 58.087L42.2709 54.1648L39.7099 44.3528L39.4071 43.1825C39.2053 42.3852 38.5871 41.7679 37.8049 41.575C37.6283 41.5365 37.4517 41.5107 37.2751 41.5107L37.3003 41.5236Z"
          />
</svg>

<svg xmlns="http://www.w3.org/2000/svg" width="auto" height="1em" fill="currentColor" viewBox="0 0 105 105">
    <mask id="a" width="100" height="46" x="3" y="30" maskUnits="userSpaceOnUse">
        <path fill="#fff" d="M3 30h100v46H3z"/>
        <path d="M8 42.835C8 38.508 11.526 35 15.875 35h74.25C94.475 35 98 38.508 98 42.835V62.98c0 4.328-3.526 7.835-7.875 7.835h-74.25C11.525 70.816 8 67.31 8 62.981z"/>
        <path d="M52.443 62.982V43.394h4.556V62.98zm9.312 0V43.394H70.7q3.207 0 5.653 1.23 2.447 1.204 3.825 3.386t1.378 5.177q0 2.966-1.378 5.177-1.378 2.183-3.825 3.413-2.446 1.203-5.653 1.203zm4.557-3.722h4.162q1.97 0 3.403-.728 1.462-.755 2.25-2.126.816-1.371.816-3.218 0-1.875-.816-3.218a5.2 5.2 0 0 0-2.25-2.099q-1.434-.755-3.403-.755h-4.162z"/>
    </mask>
    <path d="M52.443 62.982V43.394h4.556V62.98zm9.312 0V43.394H70.7q3.207 0 5.653 1.23 2.447 1.204 3.825 3.386t1.378 5.177q0 2.966-1.378 5.177-1.378 2.183-3.825 3.413-2.446 1.203-5.653 1.203zm4.557-3.722h4.162q1.97 0 3.403-.728 1.462-.755 2.25-2.126.816-1.371.816-3.218 0-1.875-.816-3.218a5.2 5.2 0 0 0-2.25-2.099q-1.434-.755-3.403-.755h-4.162z"/>
    <path d="M52.443 62.982h-5v5h5zm0-19.587v-5h-5v5zm4.556 0h5v-5h-5zm0 19.586v5h5v-5zm4.756 0h-5v5h5zm0-19.586v-5h-5v5zm14.597 1.23-2.247 4.467.02.01.02.01zm3.825 13.74 4.228 2.67.008-.013.007-.012zm-3.825 3.413 2.207 4.487.02-.01.02-.01zm-10.04-2.518h-5v5h5zm7.565-.728 2.262 4.46.017-.009.016-.008zm2.25-2.126L71.83 53.85l-.02.032-.019.034zm0-6.436-4.335 2.49.03.053.031.052zm-2.25-2.099-2.33 4.424.051.027.052.026zm-7.565-.755v-5h-5v5zM15.875 40h74.25V30h-74.25zM93 42.835V62.98h10V42.835zm-2.875 22.981h-74.25v10h74.25zM13 62.981V42.835H3V62.98zm2.875 2.835c-1.612 0-2.875-1.293-2.875-2.835H3c0 7.113 5.788 12.835 12.875 12.835zM93 62.981c0 1.542-1.263 2.835-2.875 2.835v10c7.087 0 12.875-5.722 12.875-12.835zM90.125 40C91.737 40 93 41.293 93 42.835h10C103 35.722 97.212 30 90.125 30zm-74.25-10C8.788 30 3 35.722 3 42.835h10C13 41.293 14.263 40 15.875 40zm41.568 32.982V43.394h-10V62.98zm-5-14.587h4.556v-10h-4.556zm-.444-5V62.98h10V43.396zm5 14.586h-4.556v10h4.556zm9.756 5V43.396h-10V62.98zm-5-14.586H70.7v-10h-8.944zm8.944 0c1.49 0 2.582.282 3.406.697L78.6 40.16c-2.438-1.227-5.116-1.764-7.9-1.764zm3.447.717c.851.42 1.406.94 1.803 1.569l8.456-5.34c-1.44-2.28-3.435-4.017-5.846-5.202zm1.803 1.569c.338.535.606 1.302.606 2.507h10c0-2.787-.65-5.471-2.15-7.846zm.606 2.507c0 1.175-.263 1.957-.62 2.531l8.485 5.29c1.48-2.372 2.135-5.041 2.135-7.821zm-.606 2.507c-.404.64-.972 1.178-1.844 1.617l4.495 8.933c2.39-1.203 4.372-2.94 5.805-5.21zm-1.803 1.596c-.834.41-1.94.69-3.447.69v10c2.769 0 5.431-.522 7.86-1.716zm-3.447.69h-8.944v10H70.7zm-4.387 6.279h4.162v-10h-4.162zm4.162 0c1.925 0 3.868-.357 5.665-1.268l-4.523-8.919c-.116.059-.442.187-1.142.187zm5.698-1.285c1.792-.926 3.267-2.296 4.29-4.079l-8.67-4.98c-.027.045-.051.092-.21.174zm4.252-4.013c1.072-1.802 1.519-3.787 1.519-5.774h-10c0 .475-.098.636-.113.662zm1.519-5.774c0-1.987-.439-3.996-1.542-5.813l-8.547 5.19.011.024a1 1 0 0 1 .027.086c.022.087.05.25.05.513zm-1.48-5.708a10.2 10.2 0 0 0-4.359-4.085l-4.454 8.953c.082.041.11.067.11.068l.008.009.023.035zm-4.256-4.032c-1.813-.955-3.78-1.332-5.733-1.332v10c.673 0 .974.127 1.073.18zm-5.733-1.332h-4.162v10h4.162zm-9.162 5V59.26h10V47.116z" mask="url(#a)"/>
    <path d="M37.3 43.774c.101.36.202.759.303 1.17L41.4 59.54a.44.44 0 0 1-.53.54c-.895-.218-2.396-.604-3.179-.797-.719-2.74-1.425-5.478-2.144-8.243-1.893 2.109-3.772 4.192-5.652 6.288-1.06-.27-2.12-.527-3.18-.797-.327-.077-.441-.489-.214-.746 3.596-4.012 7.178-7.986 10.8-12.01m0-2.25c-.605 0-1.198.257-1.627.733l-3.104 3.459-8.213 9.105a2.31 2.31 0 0 0-.492 2.173c.227.759.833 1.35 1.59 1.53l3.33.836.568.142c.177.038.354.064.53.064.606 0 1.199-.257 1.628-.733l2.927-3.254v.039l1.11 4.244c.202.797.82 1.414 1.602 1.607l3.886.977a2 2 0 0 0 .542.065c.58 0 1.148-.232 1.564-.669.896-.913.745-1.517.152-3.755l-1.022-3.922-2.561-9.812-.303-1.17a2.21 2.21 0 0 0-1.602-1.608 2.5 2.5 0 0 0-.53-.064z"/>
</svg>
